X: 1
T:Kershaw's Hornpipe
C:Joseph Kershaw
M:4/4
O:England
A:North-West
R:Hornpipe
K:D
(3ABc|\
dfdf ecAc| dBGB AFDF| GBAc Bged| c2A2 A2(3ABc|\
dA A2 eAA2| fefg aAA=c| BdGB AFGE| D2D2 D2::\
(3ABc|\
dAdA FDFA| BGEG BGdB| gefd ecdB| Afed cBAG| \
Fdd2 Gee2| Aff2 Bee2| fafd Bgec| d2d2 d2 :|
